pro/src/icons/stroke-warning.svg

<svg width="48" height="48" viewBox="0 0 48 48" fill="none" xmlns="http://www.w3.org/2000/svg">
<g id="icon">
<path d="M21.3958 8.51227C22.5473 6.49587 25.4546 6.49587 26.6061 8.51227L28.8528 12.4466C29.1267 12.9262 29.7375 13.093 30.2171 12.8191C30.6967 12.5452 30.8635 11.9344 30.5896 11.4548L28.3428 7.52047C26.4237 4.1598 21.5782 4.1598 19.659 7.52047L3.66841 35.522C1.7649 38.8553 4.17182 43.0015 8.01032 43.0015H39.9916C43.8301 43.0015 46.237 38.8553 44.3335 35.522L36.3099 21.4717C36.036 20.9922 35.4252 20.8254 34.9456 21.0993C34.466 21.3731 34.2993 21.984 34.5731 22.4635L42.5967 36.5138C43.7388 38.5137 42.2947 41.0015 39.9916 41.0015H8.01032C5.70721 41.0015 4.26307 38.5137 5.40517 36.5138L21.3958 8.51227Z" fill="currentColor"/>
<path d="M24.01 16.0072C24.5626 16.0072 25.0105 16.4329 25.0105 16.9581V29.051C25.0105 29.5762 24.5626 30.0019 24.01 30.0019C23.4575 30.0019 23.0096 29.5762 23.0096 29.051V16.9581C23.0096 16.4329 23.4575 16.0072 24.01 16.0072Z" fill="currentColor"/>
<path d="M22.7594 34.7502C22.7594 34.0601 23.3193 33.5006 24.01 33.5006C24.7007 33.5006 25.2606 34.0601 25.2606 34.7502C25.2606 35.4403 24.7007 35.9997 24.01 35.9997C23.3193 35.9997 22.7594 35.4403 22.7594 34.7502Z" fill="currentColor"/>
</g>
</svg>

<svg xmlns="http://www.w3.org/2000/svg" width="48" height="48" fill="none"><g id="icon" fill="currentColor"><path d="M21.396 8.512c1.151-2.016 4.059-2.016 5.21 0l2.247 3.935a1 1 0 1 0 1.737-.992L28.343 7.52c-1.92-3.36-6.765-3.36-8.684 0L3.669 35.522c-1.904 3.333.503 7.48 4.341 7.48h31.982c3.838 0 6.245-4.147 4.342-7.48l-8.024-14.05a1 1 0 0 0-1.737.991l8.024 14.05c1.142 2-.302 4.489-2.605 4.489H8.01c-2.303 0-3.747-2.488-2.605-4.488z"/><path d="M24.01 16.007c.553 0 1 .426 1 .951v12.093c0 .525-.447.95-1 .95s-1-.425-1-.95V16.958c0-.525.447-.95 1-.95M22.76 34.75a1.25 1.25 0 1 1 2.5.001 1.25 1.25 0 0 1-2.5 0"/></g></svg>
